src/standard/sustainable-energy.svg

<?xml version="1.0" encoding="UTF-8"?><svg id="uuid-8d68d54e-f76b-4625-9c4a-992a65d38157" xmlns="http://www.w3.org/2000/svg" viewBox="0 0 36 36"><title>Sustainable energy icon - Black</title>
<desc>power, battery, electricity, sustainable, planet, climate, charge, science and nature</desc>
<metadata><?xpacket begin="﻿" id="W5M0MpCehiHzreSzNTczkc9d"?>
<x:xmpmeta xmlns:x="adobe:ns:meta/" x:xmptk="Adobe XMP Core 8.0-c001 1.000000, 0000/00/00-00:00:00        ">
   <rdf:RDF xmlns:rdf="http://www.w3.org/1999/02/22-rdf-syntax-ns#">
      <rdf:Description rdf:about=""
            xmlns:xmp="http://ns.adobe.com/xap/1.0/"
            xmlns:dc="http://purl.org/dc/elements/1.1/"
            xmlns:cq="http://www.day.com/jcr/cq/1.0"
            xmlns:tiff="http://ns.adobe.com/tiff/1.0/">
         <xmp:rhcc-effective-on>2023-12-08T17:41:24.932Z</xmp:rhcc-effective-on>
         <xmp:rhcc-metadata-complete-moderator>pending</xmp:rhcc-metadata-complete-moderator>
         <xmp:rhcc-translation-id>TRAa3b0b492-e227-4abe-91e6-917d00558cc0</xmp:rhcc-translation-id>
         <xmp:brand-content-type>Icon</xmp:brand-content-type>
         <xmp:CreateDate>2023-12-08T17:41:24.932Z</xmp:CreateDate>
         <xmp:rhcc-effective-on-set-on-upload>true</xmp:rhcc-effective-on-set-on-upload>
         <xmp:rhcc-metadata-complete-uploader>pending</xmp:rhcc-metadata-complete-uploader>
         <xmp:rhcc-file-last-modified>2023-12-08T17:42:24.590Z</xmp:rhcc-file-last-modified>
         <xmp:rhcc-audience>rhcc-audience:internal</xmp:rhcc-audience>
         <xmp:rhcc-rights-restricted>no</xmp:rhcc-rights-restricted>
         <xmp:brand-content-subtype>Icon</xmp:brand-content-subtype>
         <xmp:rhcc-derivative-id>DERa3b0b492-e227-4abe-91e6-917d00558cc0</xmp:rhcc-derivative-id>
         <xmp:brand-logo-color>Black</xmp:brand-logo-color>
         <xmp:rhcc-notify-portal-subscribers-on-change>yes</xmp:rhcc-notify-portal-subscribers-on-change>
         <dc:format>image/svg+xml</dc:format>
         <dc:modified>2024-02-09T20:26:44.742Z</dc:modified>
         <dc:title>
            <rdf:Alt>
               <rdf:li xml:lang="x-default">Sustainable energy icon - Black</rdf:li>
            </rdf:Alt>
         </dc:title>
         <dc:description>
            <rdf:Alt>
               <rdf:li xml:lang="x-default">power, battery, electricity, sustainable, planet, climate, charge, science and nature</rdf:li>
            </rdf:Alt>
         </dc:description>
         <cq:lastReplicationAction_scene7>Activate</cq:lastReplicationAction_scene7>
         <cq:lastReplicationAction_publish>Activate</cq:lastReplicationAction_publish>
         <cq:lastReplicated_publish>2024-02-09T22:12:01.287Z</cq:lastReplicated_publish>
         <cq:lastReplicatedBy>workflow-process-service</cq:lastReplicatedBy>
         <cq:lastReplicationAction>Activate</cq:lastReplicationAction>
         <cq:lastReplicatedBy_publish>workflow-process-service</cq:lastReplicatedBy_publish>
         <cq:isDelivered>true</cq:isDelivered>
         <cq:lastReplicated>2024-02-09T22:12:01.287Z</cq:lastReplicated>
         <cq:lastReplicatedBy_scene7>workflow-process-service</cq:lastReplicatedBy_scene7>
         <cq:lastReplicated_scene7>2024-02-09T22:12:01.287Z</cq:lastReplicated_scene7>
         <tiff:ImageLength>36</tiff:ImageLength>
         <tiff:ImageWidth>36</tiff:ImageWidth>
      </rdf:Description>
   </rdf:RDF>
</x:xmpmeta>
                                                                                                    
                                                                                                    
                                                                                                    
                                                                                                    
                                                                                                    
                                                                                                    
                                                                                                    
                                                                                                    
                                                                                                    
                                                                                                    
                                 
<?xpacket end="w"?></metadata>
<path d="m31,14.375h-1.375v-2.375c0-.3447266-.2797852-.625-.625-.625H5c-.3452148,0-.625.2802734-.625.625v12c0,.3447266.2797852.625.625.625h6.7111816c1.0715942,1.2703857,2.6127319,2,4.2888184,2,3.1015625,0,5.625-2.5234375,5.625-5.625v-5c0-.3447266-.2797852-.625-.625-.625h-5c-3.1015625,0-5.625,2.5234375-5.625,5.625,0,.3447266.2797852.625.625.625s.625-.2802734.625-.625c0-2.4121094,1.9624023-4.375,4.375-4.375h4.375v4.375c0,2.4121094-1.9624023,4.375-4.375,4.375-.90802,0-1.7647705-.2767944-2.4844971-.776123,2.8605347-.2614746,5.1094971-2.6713257,5.1094971-5.598877,0-.3447266-.2797852-.625-.625-.625s-.625.2802734-.625.625c0,2.4121094-1.9624023,4.375-4.375,4.375h-7.375v-10.75h22.75v10.75h-5.375c-.3452148,0-.625.2802734-.625.625s.2797852.625.625.625h6c.3452148,0,.625-.2802734.625-.625v-2.375h1.375c.3452148,0,.625-.2802734.625-.625v-6c0-.3447266-.2797852-.625-.625-.625Zm-.625,6h-.75v-4.75h.75v4.75Z"/></svg>

<svg xmlns="http://www.w3.org/2000/svg" viewBox="0 0 36 36">
  <path d="M31 14.375h-1.375V12a.625.625 0 0 0-.625-.625H5a.625.625 0 0 0-.625.625v12c0 .345.28.625.625.625h6.711a5.57 5.57 0 0 0 4.289 2A5.631 5.631 0 0 0 21.625 21v-5a.625.625 0 0 0-.625-.625h-5A5.631 5.631 0 0 0 10.375 21a.625.625 0 0 0 1.25 0A4.38 4.38 0 0 1 16 16.625h4.375V21A4.38 4.38 0 0 1 16 25.375a4.339 4.339 0 0 1-2.484-.776A5.631 5.631 0 0 0 18.625 19a.625.625 0 0 0-1.25 0A4.38 4.38 0 0 1 13 23.375H5.625v-10.75h22.75v10.75H23a.625.625 0 0 0 0 1.25h6c.345 0 .625-.28.625-.625v-2.375H31c.345 0 .625-.28.625-.625v-6a.625.625 0 0 0-.625-.625Zm-.625 6h-.75v-4.75h.75v4.75Z"/>
</svg>
